icon/lg/unito-icon.svg

<?xml version="1.0" encoding="UTF-8"?>
<svg viewBox="0 0 256 256" version="1.1" xmlns="http://www.w3.org/2000/svg" xmlns:xlink="http://www.w3.org/1999/xlink" preserveAspectRatio="xMidYMid" height="1em" width="1em">
  <g>
    <path d="M204.555804,123.368487 L204.311995,152.625572 C204.302413,155.624808 201.944046,158.090374 198.948196,158.23318 C195.952347,158.090374 193.593979,155.624808 193.584397,152.625572 L193.828206,123.368487 C193.828206,106.671637 180.292735,93.1361657 163.595885,93.1361657 C148.479724,93.1361657 135.070227,106.301854 133.851182,122.63706 L133.851182,123.856105 L133.363564,135.071321 L133.363564,135.802748 C133.232907,150.436318 125.305258,163.888589 112.566887,171.092222 C99.8285152,178.295855 84.2146822,178.156446 71.6069675,170.726509 C58.9992528,163.296572 51.3130682,149.704891 51.4437251,135.071321 C51.510508,135.079265 51.5772455,135.056144 51.624801,135.008588 C51.6723565,134.961032 51.6954775,134.894295 51.6875341,134.827512 L51.4437251,134.827512 L51.4437251,106.789472 C51.4693496,105.405623 52.0437808,104.088661 53.040597,103.128425 C54.0374132,102.168189 55.374922,101.643374 56.7587622,101.669482 C58.1426843,101.630136 59.4855026,102.142445 60.4915313,103.0936 C61.4975599,104.044754 62.0843031,105.356758 62.1225612,106.74071 L61.8787521,134.77875 C61.8787521,151.4756 75.4142234,165.011072 92.1110735,165.011072 C108.807924,165.011072 122.343395,151.4756 122.343395,134.77875 L122.343395,133.803514 L122.831013,123.563534 L122.831013,122.344489 C124.342629,100.206628 142.140689,82.6523769 163.352076,82.6523769 C186.035369,82.7330366 204.365955,101.172733 204.311995,123.856105 C204.555804,123.124678 204.555804,123.124678 204.555804,123.368487 L204.555804,123.368487 Z M128.487383,0.000165942771 C57.7958269,-0.267677003 0.271007063,56.8210742 0.00092922576,127.512629 C-0.267253283,198.204183 56.8212196,255.729279 127.512773,255.999701 C198.204326,256.268224 255.729698,199.180029 255.999751,128.488477 L255.999751,128.000859 C256.134313,57.4621513 199.074796,0.162521717 128.536145,0.000165942771 L128.487383,0.000165942771 Z" fill="#3AAFA9"/>
  </g>
</svg>

<svg width="256" height="256" xmlns="http://www.w3.org/2000/svg" preserveAspectRatio="xMidYMid"><path d="m204.556 123.368-.244 29.258a5.632 5.632 0 0 1-5.364 5.607 5.632 5.632 0 0 1-5.364-5.607l.244-29.258c0-16.696-13.535-30.232-30.232-30.232-15.116 0-28.526 13.166-29.745 29.501v1.22l-.487 11.214v.732a40.962 40.962 0 0 1-81.92-.732.22.22 0 0 0 .244-.243h-.244v-28.039a5.218 5.218 0 0 1 5.315-5.12 5.218 5.218 0 0 1 5.364 5.072l-.244 28.038c0 16.697 13.535 30.232 30.232 30.232s30.232-13.535 30.232-30.232v-.975l.488-10.24v-1.22c1.512-22.137 19.31-39.692 40.521-39.692 22.683.081 41.014 18.52 40.96 41.204.244-.731.244-.731.244-.488ZM128.487 0C57.796-.268.271 56.821.001 127.513-.267 198.204 56.82 255.729 127.513 256c70.691.268 128.217-56.82 128.487-127.512v-.487C256.134 57.462 199.075.163 128.536 0h-.049Z" fill="#3AAFA9"/></svg>
